;FLAVOR:RepRap
;TIME:6916
;Generated with Cura_SteamEngine 2.3.1
M190 S60
M104 S200
M109 S200
G21 ;metric values
G90 ;absolute positioning
M82 ;set extruder to absolute mode
M107 ;start with the fan off
G28 X0 Y0 ;move X/Y to min endstops
G28 Z0 ;move Z to min endstops
G1 Z15.0 F9000 ;move the platform down 15mm
G92 E0 ;zero the extruded length
G1 F200 E3 ;extrude 3mm of feed stock
G92 E0 ;zero the extruded length again
G1 F9000
;Put printing message on LCD screen
M117 Printing...
;LAYER_COUNT:248
;LAYER:0
M107
G1 F1500 E-6.5
G0 F4320 X88.373 Y82.401 Z.3
G0 X88.858 Y81.977
;TYPE:SKIRT
G1 F1500 E0
G1 F1800 X89.437 Y81.555 E0.03574
G1 X89.892 Y81.272 E0.06248
G1 X90.385 Y81.06 E0.08925
G1 X90.953 Y80.915 E0.1185
G1 X91.541 Y80.815 E0.14825
G1 X92.052 Y80.765 E0.17387
G1 X98.34 Y80.602 E0.48768
G1 X103.762 Y80.141 E0.75917
G1 X109.153 Y79.372 E1.03085
G1 X116.394 Y77.864 E1.39985
G1 X117.141 Y77.788 E1.43731
G1 X121.957 Y77.806 E1.67759
G1 X122.095 Y77.809 E1.68447
G1 X127.641 Y78.043 E1.96141
G1 X133.124 Y77.964 E2.23499
G1 X136.637 Y77.771 E2.41051
G1 X136.88 Y77.766 E2.42264
G1 X140.679 Y77.814 E2.61219
G1 X141.214 Y77.861 E2.63898
G1 X141.735 Y77.987 E2.66572
G1 X142.232 Y78.188 E2.69247
G1 X142.565 Y78.375 E2.71152
G1 X143.034 Y78.673 E2.73925
G1 X143.464 Y78.994 E2.76602
G1 X143.841 Y79.375 E2.79276
G1 X144.078 Y79.685 E2.81223
G1 X144.204 Y79.87 E2.82339
G1 X144.472 Y80.335 E2.85017
G1 X144.717 Y81.008 E2.8859
G1 X144.834 Y81.467 E2.90953
G1 X144.928 Y81.995 E2.93629
G1 X144.946 Y82.358 E2.95442
G1 X144.928 Y117.827 E4.72398
G1 X144.888 Y118.362 E4.75074
G1 X144.769 Y118.884 E4.77745
G1 X144.673 Y119.155 E4.7918
G1 X144.533 Y119.507 E4.8107
G1 X144.298 Y119.99 E4.83749
G1 X143.848 Y120.603 E4.87543
G1 X143.631 Y120.841 E4.8915
G1 X143.241 Y121.209 E4.91825
G1 X142.574 Y121.639 E4.95785
G1 X142.216 Y121.817 E4.97779
G1 X141.719 Y122.019 E5.00456
G1 X141.198 Y122.145 E5.0313
G1 X140.657 Y122.193 E5.0584
G1 X137.253 Y122.235 E5.22824
G1 X137.061 Y122.232 E5.23782
G1 X130.404 Y121.957 E5.57022
G1 X124.917 Y122.035 E5.84399
G1 X121.381 Y122.229 E6.02067
G1 X121.18 Y122.234 E6.0307
G1 X117.61 Y122.23 E6.20881
G1 X117.223 Y122.209 E6.22815
G1 X116.427 Y122.122 E6.26809
G1 X116.019 Y122.053 E6.28874
G1 X112.734 Y121.305 E6.45682
G1 X107.332 Y120.33 E6.73068
G1 X101.927 Y119.667 E7.00236
G1 X96.466 Y119.308 E7.2754
G1 X92.692 Y119.241 E7.46372
G1 X92.487 Y119.232 E7.47395
G1 X91.341 Y119.146 E7.53129
G1 X90.81 Y119.066 E7.55808
G1 X90.298 Y118.908 E7.58481
G1 X89.951 Y118.751 E7.60381
G1 X89.585 Y118.561 E7.62439
G1 X89.129 Y118.279 E7.65114
G1 X88.72 Y117.933 E7.67786
G1 X88.513 Y117.711 E7.69301
G1 X88.076 Y117.202 E7.72648
G1 X87.758 Y116.77 E7.75324
G1 X87.507 Y116.296 E7.78
G1 X87.29 Y115.627 E7.81508
G1 X87.152 Y114.997 E7.84726
G1 X87.069 Y114.229 E7.8858
G1 X87.056 Y86.42 E9.2732
G1 X87.061 Y86.22 E9.28318
G1 X87.116 Y85.222 E9.33304
G1 X87.186 Y84.69 E9.35981
G1 X87.333 Y84.175 E9.38653
G1 X87.491 Y83.81 E9.40638
G1 X87.758 Y83.276 E9.43616
G1 X88.033 Y82.816 E9.4629
G1 X88.373 Y82.401 E9.48967
G1 X88.858 Y81.977 E9.52181
G0 F4320 X89.093 Y82.3
G1 F1800 X89.672 Y81.878 E9.55755
G1 X90.103 Y81.613 E9.58279
G1 X90.57 Y81.42 E9.608
G1 X91.02 Y81.309 E9.63113
G1 X91.608 Y81.209 E9.66088
G1 X92.062 Y81.165 E9.68364
G1 X98.351 Y81.002 E9.9975
G1 X103.816 Y80.537 E10.27114
G1 X109.213 Y79.768 E10.54312
G1 X116.475 Y78.255 E10.9132
G1 X117.14 Y78.188 E10.94654
G1 X121.956 Y78.206 E11.18682
G1 X122.079 Y78.209 E11.19295
G1 X127.631 Y78.443 E11.47019
G1 X133.151 Y78.364 E11.74561
G1 X136.659 Y78.171 E11.92089
G1 X136.875 Y78.166 E11.93167
G1 X140.674 Y78.214 E12.12122
G1 X141.178 Y78.261 E12.14647
G1 X141.668 Y78.386 E12.1717
G1 X142.35 Y78.713 E12.20944
G1 X142.819 Y79.011 E12.23716
G1 X143.223 Y79.315 E12.26238
G1 X143.574 Y79.679 E12.28761
G1 X143.748 Y79.911 E12.30208
G1 X143.874 Y80.096 E12.31325
G1 X144.125 Y80.535 E12.33847
G1 X144.33 Y81.107 E12.36879
G1 X144.447 Y81.566 E12.39242
G1 X144.533 Y82.064 E12.41763
G1 X144.546 Y82.358 E12.43232
G1 X144.528 Y117.827 E14.20187
G1 X144.488 Y118.331 E14.2271
G1 X144.301 Y119.008 E14.26214
G1 X144.161 Y119.36 E14.28104
G1 X143.938 Y119.813 E14.30623
G1 X143.553 Y120.333 E14.33851
G1 X143.336 Y120.571 E14.35457
G1 X142.967 Y120.917 E14.37981
G1 X142.396 Y121.28 E14.41357
G1 X142.038 Y121.458 E14.43351
G1 X141.569 Y121.647 E14.45874
G1 X141.076 Y121.759 E14.48396
G1 X140.652 Y121.793 E14.50518
G1 X137.248 Y121.835 E14.67502
G1 X137.077 Y121.832 E14.68356
G1 X130.414 Y121.557 E15.01626
G1 X124.889 Y121.635 E15.29193
G1 X121.359 Y121.829 E15.46831
G1 X121.18 Y121.834 E15.47724
G1 X117.61 Y121.83 E15.65535
G1 X117.266 Y121.811 E15.67254
G1 X116.47 Y121.724 E15.71249
G1 X116.107 Y121.663 E15.73085
G1 X112.802 Y120.91 E15.89996
G1 X107.397 Y119.935 E16.17397
G1 X101.967 Y119.269 E16.44691
G1 X96.478 Y118.908 E16.72134
G1 X92.699 Y118.841 E16.90991
G1 X92.517 Y118.833 E16.919
G1 X91.371 Y118.747 E16.97633
G1 X90.871 Y118.669 E17.00158
G1 X90.39 Y118.514 E17.02679
G1 X90.136 Y118.396 E17.04076
G1 X89.77 Y118.206 E17.06134
G1 X89.341 Y117.938 E17.08657
G1 X88.816 Y117.45 E17.12233
G1 X88.379 Y116.941 E17.1558
G1 X88.081 Y116.533 E17.18101
G1 X87.851 Y116.083 E17.20622
G1 X87.681 Y115.542 E17.23452
G1 X87.543 Y114.912 E17.26669
G1 X87.469 Y114.228 E17.30102
G1 X87.456 Y86.419 E18.68841
G1 X87.461 Y86.242 E18.69725
G1 X87.516 Y85.244 E18.74711
G1 X87.583 Y84.743 E18.77233
G1 X87.729 Y84.259 E18.79755
G1 X87.849 Y83.989 E18.81229
G1 X88.116 Y83.455 E18.84208
G1 X88.377 Y83.022 E18.8673
G1 X88.703 Y82.636 E18.89251
G1 X89.093 Y82.3 E18.91819
G1 F1500 E12.41819
G0 F4320 X90.668 Y84.241
G0 X91.597 Y85.155
G0 X91.51 Y85.329
G0 X91.433 Y85.266
;TYPE:WALL-INNER
G1 F1500 E18.91819
G1 F1800 X91.573 Y85.124 E18.92814
G1 X91.787 Y85.008 E18.94028
G1 X92 Y84.964 E18.95113
G1 X92.074 Y84.958 E18.95484
G1 X107.926 Y84.958 E19.7457
G1 X108 Y84.964 E19.7494
G1 X108.213 Y85.008 E19.76025
G1 X108.434 Y85.13 E19.77285
G1 X108.565 Y85.262 E19.78212
G1 X108.666 Y85.414 E19.79123
G1 X108.717 Y85.569 E19.79937
G1 X108.742 Y85.781 E19.81002
G1 X108.744 Y114.23 E21.22935
G1 X108.719 Y114.426 E21.2392
G1 X108.665 Y114.589 E21.24777
G1 X108.571 Y114.73 E21.25623
G1 X108.427 Y114.876 E21.26646
G1 X108.213 Y114.992 E21.2786
G1 X108 Y115.036 E21.28945
G1 X107.926 Y115.042 E21.29316
G1 X92.074 Y115.042 E22.08402
G1 X92 Y115.036 E22.08772
G1 X91.787 Y114.992 E22.09857
G1 X91.573 Y114.876 E22.11071
G1 X91.434 Y114.735 E22.12059
G1 X91.333 Y114.582 E22.12974
G1 X91.283 Y114.433 E22.13758
G1 X91.258 Y114.217 E22.14843
G1 X91.256 Y85.769 E23.5677
G1 X91.281 Y85.572 E23.57761
G1 X91.334 Y85.415 E23.58588
G1 X91.433 Y85.266 E23.5948
G0 F4320 X91.51 Y85.329
G0 X92.078 Y85.057
G0 X92.053 Y84.558
;TYPE:WALL-OUTER
G1 F1800 X107.947 Y84.558 E24.38776
G1 X108.055 Y84.567 E24.39317
G1 X108.352 Y84.628 E24.40829
G1 X108.677 Y84.807 E24.4268
G1 X108.88 Y85.012 E24.4412
G1 X109.029 Y85.237 E24.45466
G1 X109.109 Y85.479 E24.46738
G1 X109.142 Y85.759 E24.48144
G1 X109.144 Y114.257 E25.90321
G1 X109.111 Y114.516 E25.91624
G1 X109.029 Y114.763 E25.92922
G1 X108.881 Y114.986 E25.94258
G1 X108.67 Y115.2 E25.95757
G1 X108.353 Y115.372 E25.97556
G1 X108.055 Y115.433 E25.99074
G1 X107.947 Y115.442 E25.99614
G1 X92.053 Y115.442 E26.7891
G1 X91.945 Y115.433 E26.79451
G1 X91.647 Y115.372 E26.80968
G1 X91.33 Y115.2 E26.82768
G1 X91.121 Y114.987 E26.84256
G1 X90.972 Y114.762 E26.85603
G1 X90.891 Y114.519 E26.86881
G1 X90.858 Y114.237 E26.88297
G1 X90.856 Y85.743 E28.30454
G1 X90.889 Y85.481 E28.31772
G1 X90.972 Y85.237 E28.33058
G1 X91.121 Y85.013 E28.344
G1 X91.33 Y84.8 E28.35888
G1 X91.647 Y84.628 E28.37688
G1 X91.945 Y84.567 E28.39205
G1 X92.053 Y84.558 E28.39746
G0 F4320 X91.947 Y85.158
;TYPE:SKIN
G1 F1800 X108.563 Y101.775 E29.56984
G0 X108.633 Y101.845
G0 F4320 X108.563 Y102.34
G1 F1800 X91.586 Y85.364 E30.76763
G0 X91.516 Y85.294
G0 F4320 X91.435 Y85.778
G1 F1800 X108.563 Y102.906 E31.9761
G0 X108.633 Y102.976
G0 F4320 X108.563 Y103.472
G1 F1800 X91.435 Y86.344 E33.18457
G0 X91.365 Y86.274
G0 F4320 X91.435 Y86.909
G1 F1800 X108.563 Y104.038 E34.39308
G0 X108.633 Y104.108
G0 F4320 X108.563 Y104.603
G1 F1800 X91.435 Y87.475 E35.60156
G0 X91.365 Y87.405
G0 F4320 X91.435 Y88.041
G1 F1800 X108.563 Y105.169 E36.81003
G0 X108.633 Y105.239
G0 F4320 X108.563 Y105.735
G1 F1800 X91.435 Y88.606 E38.01854
G0 X91.365 Y88.536
G0 F4320 X91.435 Y89.172
G1 F1800 X108.563 Y106.3 E39.22701
G0 X108.633 Y106.37
G0 F4320 X108.563 Y106.866
G1 F1800 X91.435 Y89.738 E40.43548
G0 X91.365 Y89.668
G0 F4320 X91.435 Y90.303
G1 F1800 X108.564 Y107.432 E41.64403
G0 X108.634 Y107.502
G0 F4320 X108.564 Y107.998
G1 F1800 X91.435 Y90.869 E42.85257
G0 X91.365 Y90.799
G0 F4320 X91.435 Y91.435
G1 F1800 X108.564 Y108.564 E44.06111
G0 X108.634 Y108.634
G0 F4320 X108.564 Y109.129
G1 F1800 X91.435 Y92 E45.26966
G0 X91.365 Y91.93
G0 F4320 X91.435 Y92.566
G1 F1800 X108.564 Y109.695 E46.4782
G0 X108.634 Y109.765
G0 F4320 X108.564 Y110.261
G1 F1800 X91.435 Y93.133 E47.68671
G0 X91.365 Y93.063
G0 F4320 X91.435 Y93.698
G1 F1800 X108.564 Y110.826 E48.89522
G0 X108.634 Y110.896
G0 F4320 X108.564 Y111.392
G1 F1800 X91.435 Y94.264 E50.10372
G0 X91.365 Y94.194
G0 F4320 X91.435 Y94.83
G1 F1800 X108.564 Y111.958 E51.31223
G0 X108.634 Y112.028
G0 F4320 X108.564 Y112.524
G1 F1800 X91.435 Y95.395 E52.52078
G0 X91.365 Y95.325
G0 F4320 X91.435 Y95.961
G1 F1800 X108.564 Y113.089 E53.72928
G0 X108.634 Y113.159
G0 F4320 X108.564 Y113.655
G1 F1800 X91.435 Y96.527 E54.93779
G0 X91.365 Y96.457
G0 F4320 X91.435 Y97.092
G1 F1800 X108.564 Y114.221 E56.14634
G0 X108.634 Y114.291
G0 F4320 X108.412 Y114.634
G1 F1800 X91.435 Y97.658 E57.34412
G0 X91.365 Y97.588
G0 F4320 X91.435 Y98.224
G1 F1800 X108.052 Y114.84 E58.5165
G0 X108.122 Y114.91
G0 F4320 X107.507 Y114.861
G1 F1800 X91.435 Y98.789 E59.65047
G0 X91.365 Y98.719
G0 F4320 X91.435 Y99.355
G1 F1800 X106.941 Y114.861 E60.7445
G0 X107.011 Y114.931
G0 F4320 X106.375 Y114.861
G1 F1800 X91.435 Y99.921 E61.7986
G0 X91.365 Y99.851
G0 F4320 X91.436 Y100.487
G1 F1800 X105.81 Y114.861 E62.81276
G0 X105.88 Y114.931
G0 F4320 X105.244 Y114.861
G1 F1800 X91.436 Y101.053 E63.78699
G0 X91.366 Y100.983
G0 F4320 X91.436 Y101.619
G1 F1800 X104.678 Y114.861 E64.72129
G0 X104.748 Y114.931
G0 F4320 X104.112 Y114.861
G1 F1800 X91.436 Y102.184 E65.61568
G0 X91.366 Y102.114
G0 F4320 X91.436 Y102.75
G1 F1800 X103.547 Y114.861 E66.47018
G0 X103.617 Y114.931
G0 F4320 X102.981 Y114.861
G1 F1800 X91.436 Y103.316 E67.28474
G0 X91.366 Y103.246
G0 F4320 X91.436 Y103.881
G1 F1800 X102.415 Y114.861 E68.0594
G0 X102.485 Y114.931
G0 F4320 X101.85 Y114.861
G1 F1800 X91.436 Y104.447 E68.79417
G0 X91.366 Y104.377
G0 F4320 X91.436 Y105.013
G1 F1800 X101.284 Y114.861 E69.489
G0 X101.354 Y114.931
G0 F4320 X100.718 Y114.861
G1 F1800 X91.436 Y105.578 E70.14393
G0 X91.366 Y105.508
G0 F4320 X91.436 Y106.144
G1 F1800 X100.153 Y114.861 E70.75896
G0 X100.223 Y114.931
G0 F4320 X99.587 Y114.861
G1 F1800 X91.436 Y106.71 E71.33406
G0 X91.366 Y106.64
G0 F4320 X91.437 Y107.276
G1 F1800 X99.021 Y114.861 E71.86918
G0 X99.091 Y114.931
G0 F4320 X98.456 Y114.861
G1 F1800 X91.437 Y107.842 E72.36441
G0 X91.367 Y107.772
G0 F4320 X91.437 Y108.407
G1 F1800 X97.89 Y114.861 E72.81974
G0 X97.96 Y114.931
G0 F4320 X97.324 Y114.861
G1 F1800 X91.437 Y108.973 E73.23514
G0 X91.367 Y108.903
G0 F4320 X91.437 Y109.539
G1 F1800 X96.759 Y114.861 E73.61063
G0 X96.829 Y114.931
G0 F4320 X96.193 Y114.861
G1 F1800 X91.437 Y110.105 E73.94619
G0 X91.367 Y110.035
G0 F4320 X91.437 Y110.67
G1 F1800 X95.627 Y114.861 E74.24186
G0 X95.697 Y114.931
G0 F4320 X95.062 Y114.861
G1 F1800 X91.437 Y111.236 E74.49762
G0 X91.367 Y111.166
G0 F4320 X91.437 Y111.802
G1 F1800 X94.496 Y114.861 E74.71345
G0 X94.566 Y114.931
G0 F4320 X93.93 Y114.861
G1 F1800 X91.437 Y112.367 E74.88938
G0 X91.367 Y112.297
G0 F4320 X91.437 Y112.933
G1 F1800 X93.364 Y114.861 E75.02537
G0 X93.434 Y114.931
G0 F4320 X92.799 Y114.861
G1 F1800 X91.437 Y113.499 E75.12147
G0 X91.367 Y113.429
G0 F4320 X91.437 Y114.064
G1 F1800 X92.233 Y114.861 E75.17767
G0 X92.303 Y114.931
G0 F4320 X108.563 Y101.209
G1 F1800 X92.491 Y85.137 E76.31163
G0 X92.421 Y85.067
G0 F4320 X93.057 Y85.137
G1 F1800 X108.563 Y100.643 E77.40567
G0 X108.633 Y100.713
G0 F4320 X108.563 Y100.078
G1 F1800 X93.623 Y85.137 E78.4598
G0 X93.553 Y85.067
G0 F4320 X94.188 Y85.137
G1 F1800 X108.562 Y99.511 E79.47396
G0 X108.632 Y99.581
G0 F4320 X108.562 Y98.946
G1 F1800 X94.754 Y85.137 E80.44823
G0 X94.684 Y85.067
G0 F4320 X95.32 Y85.137
G1 F1800 X108.562 Y98.38 E81.38256
G0 X108.632 Y98.45
G0 F4320 X108.562 Y97.814
G1 F1800 X95.885 Y85.137 E82.27699
G0 X95.815 Y85.067
G0 F4320 X96.451 Y85.137
G1 F1800 X108.562 Y97.249 E83.13152
G0 X108.632 Y97.319
G0 F4320 X108.562 Y96.683
G1 F1800 X97.017 Y85.137 E83.94612
G0 X96.947 Y85.067
G0 F4320 X97.582 Y85.137
G1 F1800 X108.562 Y96.117 E84.72081
G0 X108.632 Y96.187
G0 F4320 X108.562 Y95.552
G1 F1800 X98.148 Y85.137 E85.45561
G0 X98.078 Y85.067
G0 F4320 X98.714 Y85.137
G1 F1800 X108.562 Y94.986 E86.15048
G0 X108.632 Y95.056
G0 F4320 X108.562 Y94.42
G1 F1800 X99.279 Y85.137 E86.80544
G0 X99.209 Y85.067
G0 F4320 X99.845 Y85.137
G1 F1800 X108.562 Y93.854 E87.42048
G0 X108.632 Y93.924
G0 F4320 X108.562 Y93.289
G1 F1800 X100.411 Y85.137 E87.99561
G0 X100.341 Y85.067
G0 F4320 X100.976 Y85.137
G1 F1800 X108.562 Y92.722 E88.53081
G0 X108.632 Y92.792
G0 F4320 X108.562 Y92.157
G1 F1800 X101.542 Y85.137 E89.0261
G0 X101.472 Y85.067
G0 F4320 X102.108 Y85.137
G1 F1800 X108.562 Y91.591 E89.48147
G0 X108.632 Y91.661
G0 F4320 X108.562 Y91.025
G1 F1800 X102.674 Y85.137 E89.8969
G0 X102.604 Y85.067
G0 F4320 X103.239 Y85.137
G1 F1800 X108.562 Y90.46 E90.27247
G0 X108.632 Y90.53
G0 F4320 X108.562 Y89.894
G1 F1800 X103.805 Y85.137 E90.6081
G0 X103.735 Y85.067
G0 F4320 X104.371 Y85.137
G1 F1800 X108.562 Y89.328 E90.9038
G0 X108.632 Y89.398
G0 F4320 X108.562 Y88.763
G1 F1800 X104.936 Y85.137 E91.15963
G0 X104.866 Y85.067
G0 F4320 X105.502 Y85.137
G1 F1800 X108.562 Y88.197 E91.37553
G0 X108.632 Y88.267
G0 F4320 X108.562 Y87.631
G1 F1800 X106.068 Y85.137 E91.55149
G0 X105.998 Y85.067
G0 F4320 X106.633 Y85.137
G1 F1800 X108.562 Y87.066 E91.6876
G0 X108.632 Y87.136
G0 F4320 X108.562 Y86.5
G1 F1800 X107.199 Y85.137 E91.78376
G0 X107.129 Y85.067
G0 F4320 X107.765 Y85.137
G1 F1800 X108.562 Y85.934 E91.84
G0 X108.632 Y86.004
G0 F4320 X108.342 Y86.003
G1 F1500 E85.34
G0 F4320 X108.631 Y85.431
G0 X109.866 Y85.017
G0 X115.617 Y85.433
G0 X116.926 Y85.433
G0 X116.986 Y82.327
G0 X116.887 Y82.315
;TYPE:WALL-INNER
G1 F1500 E91.84
G1 F1800 X116.918 Y82.198 E91.84603
G1 X116.979 Y82.104 E91.85162
G1 X117.055 Y82.035 E91.85675
G1 X117.115 Y82.002 E91.86016
G1 X117.213 Y81.972 E91.86528
G1 X117.293 Y81.966 E91.86928
G1 X120.702 Y81.965 E92.03935
G1 X120.902 Y81.965 E92.04933
G1 X120.902 Y82.165 E92.05579
G1 X120.902 Y82.969 E92.0959
G1 X137.102 Y82.969 E92.90413
G1 X137.102 Y82.166 E92.94419
G1 X137.102 Y81.966 E92.95416
G1 X137.302 Y81.966 E92.96063
G1 X140.406 Y81.97 E93.11549
G1 X140.521 Y82.001 E93.12143
G1 X140.618 Y82.062 E93.12714
G1 X140.691 Y82.145 E93.13266
G1 X140.739 Y82.248 E93.13833
G1 X140.75 Y82.297 E93.14083
G1 X140.756 Y82.374 E93.14469
G1 X140.752 Y117.692 E94.90671
G1 X140.717 Y117.811 E94.9129
G1 X140.658 Y117.901 E94.91827
G1 X140.574 Y117.973 E94.92379
G1 X140.478 Y118.017 E94.92905
G1 X140.412 Y118.03 E94.93241
G1 X140.339 Y118.035 E94.93606
G1 X137.102 Y118.035 E95.09756
G1 X137.102 Y116.826 E95.15787
G1 X120.902 Y116.826 E95.96609
G1 X120.902 Y118.034 E96.02636
G1 X117.299 Y118.035 E96.20612
G1 X117.164 Y118.017 E96.21291
G1 X117.105 Y117.996 E96.21603
G1 X117.017 Y117.938 E96.22129
G1 X116.943 Y117.853 E96.22692
G1 X116.899 Y117.749 E96.23255
G1 X116.887 Y117.691 E96.2355
G1 X116.882 Y117.615 E96.2393
G1 X116.887 Y82.315 E98.00043
G0 F4320 X116.482 Y82.358
;TYPE:WALL-OUTER
G1 F1800 X116.49 Y82.261 E98.00528
G1 X116.515 Y82.138 E98.01155
G1 X116.552 Y82.035 E98.01701
G1 X116.603 Y81.94 E98.02239
G1 X116.674 Y81.843 E98.02838
G1 X116.754 Y81.762 E98.03406
G1 X116.838 Y81.698 E98.03933
